icons/linear-new-building-home-house-2.svg

<svg xmlns="http://www.w3.org/2000/svg" width="32px" height="32px" viewBox="0 0 32 32" version="1.1">
    <title>linear-new-building-home-house-2</title>
    <g id="linear-new-building-home-house-2" stroke-width="1" fill-rule="evenodd">
        <path d="M16.6178216,2.21368166 L30.6178216,13.2136817 C31.0520932,13.5548951 31.1275318,14.1835499 30.7863183,14.6178216 C30.4451049,15.0520932 29.8164501,15.1275318 29.3821784,14.7863183 L27.9999574,13.7 L28,29 C28,29.5522847 27.5522847,30 27,30 L5,30 C4.44771525,30 4,29.5522847 4,29 L3.99995742,13.699 L2.61782155,14.7863183 C2.21695543,15.1012846 1.65046102,15.0612337 1.29730642,14.7116419 L1.21368166,14.6178216 C0.87246824,14.1835499 0.947906821,13.5548951 1.38217845,13.2136817 L15.3821784,2.21368166 C15.7447898,1.92877278 16.2552102,1.92877278 16.6178216,2.21368166 Z M16,4.271 L5.99995742,12.128 L5.99995742,28 L10.9999574,28 L11,20 C11,19.4477153 11.4477153,19 12,19 L20,19 C20.5522847,19 21,19.4477153 21,20 L20.9999574,28 L26,28 L26,12.129 L16,4.271 Z M19,21 L12.9999574,21 L12.9999574,28 L19,28 L19,21 Z" id="&#24418;&#29366;" fill-rule="nonzero" />
    </g>
</svg>

<svg xmlns="http://www.w3.org/2000/svg" viewBox="0 0 32 32"><path fill="currentColor" d="m16.618 2.214 14 11a1 1 0 1 1-1.236 1.572L28 13.7V29a1 1 0 0 1-1 1H5a1 1 0 0 1-1-1V13.699l-1.382 1.087a1 1 0 0 1-1.32-.074l-.084-.094a1 1 0 0 1 .168-1.404l14-11a1 1 0 0 1 1.236 0M16 4.27 6 12.128V28h5v-8a1 1 0 0 1 1-1h8a1 1 0 0 1 1 1v8h5V12.129zM19 21h-6v7h6z"/></svg>
